**kern	**silbe	**kern	**silbe	**harmony	**phrase	**leadinstrument	**rhyme	**timestamp	**harte
*ICvox	*	*ICvox	*	*M4/4	*	*	*	*	*M4/4
*VRlead	*	*VRharmonize	*	*	*	*	*	*	*
*Hstimme	*	*Nstimme	*	*	*	*	*	*	*
*D:	*	*D:	*	*D:	*	*	*	*	*D:
*M4/4	*	*M4/4	*	*	*	*	*	*	*
*clefG2	*	*clefG2	*	*	*	*	*	*	*
r;	.	r;	.	1r;	.	r	.	0	N.C.
=1	=1	=1	=1	=1	=1	=1	=1	=1	=1
*>Letter>A	*>Letter>A	*>Letter>A	*>Letter>A	*>Letter>A	*>Letter>A	*>Letter>A	*>Letter>A	*>Letter>A	*>Letter>A
*>Label>Intro	*>Label>Intro	*>Label>Intro	*>Label>Intro	*>Label>Intro	*>Label>Intro	*>Label>Intro	*>Label>Intro	*>Label>Intro	*>Label>Intro
1r	.	1r	.	1DM	newline	guitar	.	0.766	D:maj(9)
=2	=2	=2	=2	=2	=2	=2	=2	=2	=2
1r	.	1r	.	1EM	.	guitar	.	2.549	E:maj/b7
=3	=3	=3	=3	=3	=3	=3	=3	=3	=3
1r	.	1r	.	1GM	.	guitar	.	4.331	G:maj/5
=4	=4	=4	=4	=4	=4	=4	=4	=4	=4
1r	.	1r	.	1DM	.	guitar	.	6.113	D:maj(9)
=5	=5	=5	=5	=5	=5	=5	=5	=5	=5
*>Letter>B	*>Letter>B	*>Letter>B	*>Letter>B	*>Letter>B	*>Letter>B	*>Letter>B	*>Letter>B	*>Letter>B	*>Letter>B
*>Label>Verse	*>Label>Verse	*>Label>Verse	*>Label>Verse	*>Label>Verse	*>Label>Verse	*>Label>Verse	*>Label>Verse	*>Label>Verse	*>Label>Verse
4f#	Ooh	1r	.	1DM	newline	voice	.	7.895	D:maj
4e	I	.	.	.	.	.	.	.	.
4d	need	.	.	.	.	.	.	.	.
4e	your	.	.	.	.	.	.	.	.
=6	=6	=6	=6	=6	=6	=6	=6	=6	=6
4.e	love	1r	.	1EM	.	voice	.	9.631	E:maj
4B	babe	.	.	.	.	.	.	.	.
8r	.	.	.	.	.	.	.	.	.
4r	.	.	.	.	.	.	.	.	.
=7	=7	=7	=7	=7	=7	=7	=7	=7	=7
4B	Guess	1r	.	1GM	.	voice	.	11.367	G:maj
4d	you	.	.	.	.	.	.	.	.
4g	know	.	.	.	.	.	.	.	.
8g	it's	.	.	.	.	.	.	.	.
[8f#	true	.	.	.	.	.	A	.	.
=8	=8	=8	=8	=8	=8	=8	=8	=8	=8
4f#]	_	1r	.	1DM	.	voice	.	13.103	D:maj
4r	.	.	.	.	.	.	.	.	.
2r	.	.	.	.	.	.	.	.	.
=9	=9	=9	=9	=9	=9	=9	=9	=9	=9
4f#	Hope	1r	.	1DM	newline	voice	.	14.839	D:maj
4e	you	.	.	.	.	.	.	.	.
4d	need	.	.	.	.	.	.	.	.
4e	my	.	.	.	.	.	.	.	.
=10	=10	=10	=10	=10	=10	=10	=10	=10	=10
4.e	love	1r	.	1EM	.	voice	.	16.576	E:maj
4B	babe	.	.	.	.	.	.	.	.
8r	.	.	.	.	.	.	.	.	.
4r	.	.	.	.	.	.	.	.	.
=11	=11	=11	=11	=11	=11	=11	=11	=11	=11
4B	Just	1r	.	1GM	.	voice	.	18.313	G:maj
4d	like	.	.	.	.	.	.	.	.
4g	I	.	.	.	.	.	.	.	.
8g	need	.	.	.	.	.	.	.	.
[8f#	you	.	.	.	.	.	A	.	.
=12	=12	=12	=12	=12	=12	=12	=12	=12	=12
4f#]	_	1r	.	1DM	.	voice	.	20.05	D:maj
4r	.	.	.	.	.	.	.	.	.
2r	.	.	.	.	.	.	.	.	.
=13	=13	=13	=13	=13	=13	=13	=13	=13	=13
*>Letter>C	*>Letter>C	*>Letter>C	*>Letter>C	*>Letter>C	*>Letter>C	*>Letter>C	*>Letter>C	*>Letter>C	*>Letter>C
*>Label>Prechorus	*>Label>Prechorus	*>Label>Prechorus	*>Label>Prechorus	*>Label>Prechorus	*>Label>Prechorus	*>Label>Prechorus	*>Label>Prechorus	*>Label>Prechorus	*>Label>Prechorus
4.f#	Hold	4.f#	Hold	1Bm	newline	voice	.	21.787	B:min
4d	me	4d	me	.	.	.	B	.	.
8r	.	8r	.	.	.	.	.	.	.
4r	.	4r	.	.	.	.	.	.	.
=14	=14	=14	=14	=14	=14	=14	=14	=14	=14
4.e	Love	4.e	Love	1GM	.	voice	.	23.528	G:maj
4B	me	4B	me	.	.	.	B	.	.
8r	.	8r	.	.	.	.	.	.	.
4r	.	4r	.	.	.	.	.	.	.
=15	=15	=15	=15	=15	=15	=15	=15	=15	=15
4.f#	Hold	4.f#	Hold	1Bm	.	voice	.	25.27	B:min
4d	me	4d	me	.	.	.	B	.	.
8r	.	8r	.	.	.	.	.	.	.
4r	.	4r	.	.	.	.	.	.	.
=16	=16	=16	=16	=16	=16	=16	=16	=16	=16
4.e	Love	4.e	Love	1EM	.	voice	.	27.011	E:maj
4B	Me	4B	Me	.	.	.	B	.	.
8r	.	8r	.	.	.	.	.	.	.
8r	.	4r	.	.	.	.	.	.	.
8e	I	.	.	.	.	.	.	.	.
=17	=17	=17	=17	=17	=17	=17	=17	=17	=17
*>Letter>B2	*>Letter>B2	*>Letter>B2	*>Letter>B2	*>Letter>B2	*>Letter>B2	*>Letter>B2	*>Letter>B2	*>Letter>B2	*>Letter>B2
*>Label>Chorus	*>Label>Chorus	*>Label>Chorus	*>Label>Chorus	*>Label>Chorus	*>Label>Chorus	*>Label>Chorus	*>Label>Chorus	*>Label>Chorus	*>Label>Chorus
4f#	ain't	1r	.	1DM	newline	voice	.	28.753	D:maj
4e	got	.	.	.	.	.	.	.	.
8d	no-	.	.	.	.	.	.	.	.
8d	-thin'	.	.	.	.	.	.	.	.
4e	but	.	.	.	.	.	.	.	.
=18	=18	=18	=18	=18	=18	=18	=18	=18	=18
4.e	love	1r	.	1EM	.	voice	.	30.473	E:maj
4.B	babe	.	.	.	.	.	C	.	.
4r	.	.	.	.	.	.	.	.	.
=19	=19	=19	=19	=19	=19	=19	=19	=19	=19
4r	.	4r	.	1GM	.	voice	.	32.193	G:maj
4g	Eight	4d	Eight	.	.	.	C	.	.
4g	days	4d	days	.	.	.	C	.	.
8g	a	8c#	a	.	.	.	.	.	.
16f#	week	16d	week	.	.	.	B	.	.
16e	_	16B	_	.	.	.	.	.	.
=20	=20	=20	=20	=20	=20	=20	=20	=20	=20
4d	_	4A	_	1DM	.	voice	.	33.913	D:maj
4r	.	4r	.	.	.	.	.	.	.
2r	.	2r	.	.	.	.	.	.	.
=21	=21	=21	=21	=21	=21	=21	=21	=21	=21
*>Letter>B	*>Letter>B	*>Letter>B	*>Letter>B	*>Letter>B	*>Letter>B	*>Letter>B	*>Letter>B	*>Letter>B	*>Letter>B
*>Label>Verse	*>Label>Verse	*>Label>Verse	*>Label>Verse	*>Label>Verse	*>Label>Verse	*>Label>Verse	*>Label>Verse	*>Label>Verse	*>Label>Verse
4f#	Love	1r	.	1DM	newline	voice	.	35.634	D:maj
4e	you	.	.	.	.	.	.	.	.
4d	ev-	.	.	.	.	.	.	.	.
8e	-ery	.	.	.	.	.	.	.	.
[8e	day	.	.	.	.	.	.	.	.
=22	=22	=22	=22	=22	=22	=22	=22	=22	=22
4.e]	_	1r	.	1EM	.	voice	.	37.368	E:maj
4.B	girl	.	.	.	.	.	.	.	.
4r	.	.	.	.	.	.	.	.	.
=23	=23	=23	=23	=23	=23	=23	=23	=23	=23
4B	Al-	1r	.	1GM	.	voice	.	39.102	G:maj
4d	-ways	.	.	.	.	.	.	.	.
4g	on	.	.	.	.	.	.	.	.
8g	my	.	.	.	.	.	.	.	.
[8f#	mind	.	.	.	.	.	D	.	.
=24	=24	=24	=24	=24	=24	=24	=24	=24	=24
4.f#]	_	1r	.	1DM	.	voice	.	40.837	D:maj
8r	.	.	.	.	.	.	.	.	.
2r	.	.	.	.	.	.	.	.	.
=25	=25	=25	=25	=25	=25	=25	=25	=25	=25
4f#	One	1r	.	1DM	newline	voice	.	42.571	D:maj
4e	thing	.	.	.	.	.	.	.	.
8d	I	.	.	.	.	.	.	.	.
4e	can	.	.	.	.	.	.	.	.
[8e	say	.	.	.	.	.	.	.	.
=26	=26	=26	=26	=26	=26	=26	=26	=26	=26
4.e]	_	1r	.	1EM	.	voice	.	44.308	E:maj
[8B	girl	.	.	.	.	.	.	.	.
4B]	_	.	.	.	.	.	.	.	.
4r	.	.	.	.	.	.	.	.	.
=27	=27	=27	=27	=27	=27	=27	=27	=27	=27
4B	Love	1r	.	1GM	.	voice	.	46.045	G:maj
4d	you	.	.	.	.	.	.	.	.
4g	all	.	.	.	.	.	.	.	.
8g	the	.	.	.	.	.	.	.	.
[8f#	time	.	.	.	.	.	D	.	.
=28	=28	=28	=28	=28	=28	=28	=28	=28	=28
4f#]	_	1r	.	1DM	.	voice	.	47.782	D:maj
4r	.	.	.	.	.	.	.	.	.
2r	.	.	.	.	.	.	.	.	.
=29	=29	=29	=29	=29	=29	=29	=29	=29	=29
*>Letter>C	*>Letter>C	*>Letter>C	*>Letter>C	*>Letter>C	*>Letter>C	*>Letter>C	*>Letter>C	*>Letter>C	*>Letter>C
*>Label>Prechorus	*>Label>Prechorus	*>Label>Prechorus	*>Label>Prechorus	*>Label>Prechorus	*>Label>Prechorus	*>Label>Prechorus	*>Label>Prechorus	*>Label>Prechorus	*>Label>Prechorus
4.f#	Hold	4.a	Hold	1Bm	newline	voice	.	49.519	B:min
4d	me	4f#	me	.	.	.	B	.	.
8r	.	8r	.	.	.	.	.	.	.
4r	.	4r	.	.	.	.	.	.	.
=30	=30	=30	=30	=30	=30	=30	=30	=30	=30
4.e	Love	4.g	Love	1GM	.	voice	.	51.247	G:maj
4B	me	4d	me	.	.	.	B	.	.
8r	.	8r	.	.	.	.	.	.	.
4r	.	4r	.	.	.	.	.	.	.
=31	=31	=31	=31	=31	=31	=31	=31	=31	=31
4.f#	Hold	4.a	Hold	1Bm	.	voice	.	52.975	B:min
4d	me	4f#	me	.	.	.	B	.	.
8r	.	8r	.	.	.	.	.	.	.
4r	.	4r	.	.	.	.	.	.	.
=32	=32	=32	=32	=32	=32	=32	=32	=32	=32
4.e	Love	4.g#	Love	1EM	.	voice	.	54.703	E:maj
4B	Me	4e	Me	.	.	.	B	.	.
8r	.	8r	.	.	.	.	.	.	.
8r	.	4r	.	.	.	.	.	.	.
8e	I	.	.	.	.	.	.	.	.
=33	=33	=33	=33	=33	=33	=33	=33	=33	=33
*>Letter>B2	*>Letter>B2	*>Letter>B2	*>Letter>B2	*>Letter>B2	*>Letter>B2	*>Letter>B2	*>Letter>B2	*>Letter>B2	*>Letter>B2
*>Label>Chorus	*>Label>Chorus	*>Label>Chorus	*>Label>Chorus	*>Label>Chorus	*>Label>Chorus	*>Label>Chorus	*>Label>Chorus	*>Label>Chorus	*>Label>Chorus
4f#	ain't	1r	.	1DM	newline	voice	.	56.431	D:maj
4e	got	.	.	.	.	.	.	.	.
8d	no-	.	.	.	.	.	.	.	.
8d	-thin'	.	.	.	.	.	.	.	.
4e	but	.	.	.	.	.	.	.	.
=34	=34	=34	=34	=34	=34	=34	=34	=34	=34
4.e	love	1r	.	1EM	.	voice	.	58.14	E:maj
4.B	girl	.	.	.	.	.	.	.	.
4r	.	.	.	.	.	.	.	.	.
=35	=35	=35	=35	=35	=35	=35	=35	=35	=35
4r	.	4r	.	1GM	.	voice	.	59.849	G:maj
4g	Eight	4d	Eight	.	.	.	C	.	.
4g	days	4d	days	.	.	.	C	.	.
8g	a	8c#	a	.	.	.	.	.	.
16f#	week	16d	week	.	.	.	B	.	.
16e	_	16B	_	.	.	.	.	.	.
=36	=36	=36	=36	=36	=36	=36	=36	=36	=36
4d	_	4A	_	1DM	.	voice	.	61.559	D:maj
4r	.	4r	.	.	.	.	.	.	.
2r	.	2r	.	.	.	.	.	.	.
=37	=37	=37	=37	=37	=37	=37	=37	=37	=37
*>Letter>D	*>Letter>D	*>Letter>D	*>Letter>D	*>Letter>D	*>Letter>D	*>Letter>D	*>Letter>D	*>Letter>D	*>Letter>D
*>Label>Bridge	*>Label>Bridge	*>Label>Bridge	*>Label>Bridge	*>Label>Bridge	*>Label>Bridge	*>Label>Bridge	*>Label>Bridge	*>Label>Bridge	*>Label>Bridge
2e	Eight	2A	Eight	1AM	newline	voice	C	63.268	A:maj
4.e	days	4.A	days	.	.	.	C	.	.
8f#	a	8B	a	.	.	.	.	.	.
=38	=38	=38	=38	=38	=38	=38	=38	=38	=38
2e	week	2A	week	1AM	.	voice	B	65.038	A:maj
4.r	.	4.r	.	.	.	.	.	.	.
8d	I	8A	I	.	.	.	.	.	.
=39	=39	=39	=39	=39	=39	=39	=39	=39	=39
4e	love	4B	love	1Bm	.	voice	.	66.807	B:min
4d	_	4A	_	.	.	.	.	.	.
4e	_	4B	_	.	.	.	.	.	.
4d	_	4A	_	.	.	.	.	.	.
=40	=40	=40	=40	=40	=40	=40	=40	=40	=40
12e	_	12B	_	1Bm	.	voice	.	68.577	B:min
12d	_	12A	_	.	.	.	.	.	.
12B	you	12F#	you	.	.	.	.	.	.
4r	.	4r	.	.	.	.	.	.	.
2r	.	2r	.	.	.	.	.	.	.
=41	=41	=41	=41	=41	=41	=41	=41	=41	=41
2e	Eight	2G#	Eight	1EM	newline	voice	C	70.346	E:maj
4.e	days	4.G#	days	.	.	.	C	.	.
8f#	a	8A	a	.	.	.	.	.	.
=42	=42	=42	=42	=42	=42	=42	=42	=42	=42
4e	week	4G#	week	1EM	.	voice	B	72.09	E:maj
4r	.	4r	.	.	.	.	.	.	.
4.r	.	4.r	.	.	.	.	.	.	.
8d	is	8A	is	.	.	.	.	.	.
=43	=43	=43	=43	=43	=43	=43	=43	=43	=43
4e	not	4B	not	1GM	.	voice	.	73.833	G:maj
4d	e-	4A	e-	.	.	.	.	.	.
4e	-nough	4B	-nough	.	.	.	.	.	.
4d	to	4A	to	.	.	.	.	.	.
=44	=44	=44	=44	=44	=44	=44	=44	=44	=44
8e	show	8c#	show	1AM	.	voice	.	75.577	A:maj
4e	I	4c#	I	.	.	.	.	.	.
4.g	care	4.e	care	.	.	.	.	.	.
4r	.	4r	.	.	.	.	.	.	.
=45	=45	=45	=45	=45	=45	=45	=45	=45	=45
*>Letter>B	*>Letter>B	*>Letter>B	*>Letter>B	*>Letter>B	*>Letter>B	*>Letter>B	*>Letter>B	*>Letter>B	*>Letter>B
*>Label>Verse	*>Label>Verse	*>Label>Verse	*>Label>Verse	*>Label>Verse	*>Label>Verse	*>Label>Verse	*>Label>Verse	*>Label>Verse	*>Label>Verse
4f#	Ooh	1r	.	1DM	newline	voice	.	77.32	D:maj
4e	I	.	.	.	.	.	.	.	.
4d	need	.	.	.	.	.	.	.	.
4e	your	.	.	.	.	.	.	.	.
=46	=46	=46	=46	=46	=46	=46	=46	=46	=46
4.e	love	1r	.	1EM	.	voice	.	79.057	E:maj
4B	babe	.	.	.	.	.	.	.	.
8r	.	.	.	.	.	.	.	.	.
4r	.	.	.	.	.	.	.	.	.
=47	=47	=47	=47	=47	=47	=47	=47	=47	=47
4B	Yes	1r	.	1GM	.	voice	.	80.794	G:maj
4d	you	.	.	.	.	.	.	.	.
4g	know	.	.	.	.	.	.	.	.
8g	it's	.	.	.	.	.	.	.	.
[8f#	true	.	.	.	.	.	A	.	.
=48	=48	=48	=48	=48	=48	=48	=48	=48	=48
4f#]	_	1r	.	1DM	.	voice	.	82.531	D:maj
4r	.	.	.	.	.	.	.	.	.
2r	.	.	.	.	.	.	.	.	.
=49	=49	=49	=49	=49	=49	=49	=49	=49	=49
4f#	Hope	1r	.	1DM	newline	voice	.	84.268	D:maj
4e	you	.	.	.	.	.	.	.	.
4d	need	.	.	.	.	.	.	.	.
4e	my	.	.	.	.	.	.	.	.
=50	=50	=50	=50	=50	=50	=50	=50	=50	=50
4.e	love	1r	.	1EM	.	voice	.	86.015	E:maj
4B	babe	.	.	.	.	.	.	.	.
8r	.	.	.	.	.	.	.	.	.
4r	.	.	.	.	.	.	.	.	.
=51	=51	=51	=51	=51	=51	=51	=51	=51	=51
4B	Just	1r	.	1GM	.	voice	.	87.762	G:maj
4d	like	.	.	.	.	.	.	.	.
4g	I	.	.	.	.	.	.	.	.
8g	need	.	.	.	.	.	.	.	.
[8f#	you	.	.	.	.	.	A	.	.
=52	=52	=52	=52	=52	=52	=52	=52	=52	=52
4f#]	_	1r	.	1DM	.	voice	.	89.509	D:maj
8r	.	.	.	.	.	.	.	.	.
8f#	Oh	.	.	.	.	.	.	.	.
12e	_	.	.	.	.	.	.	.	.
12d	_	.	.	.	.	.	.	.	.
[12e	huh	.	.	.	.	.	.	.	.
8e]	_	.	.	.	.	.	.	.	.
8e	Hold	.	.	.	.	.	.	.	.
=53	=53	=53	=53	=53	=53	=53	=53	=53	=53
*>Letter>C	*>Letter>C	*>Letter>C	*>Letter>C	*>Letter>C	*>Letter>C	*>Letter>C	*>Letter>C	*>Letter>C	*>Letter>C
*>Label>Prechorus	*>Label>Prechorus	*>Label>Prechorus	*>Label>Prechorus	*>Label>Prechorus	*>Label>Prechorus	*>Label>Prechorus	*>Label>Prechorus	*>Label>Prechorus	*>Label>Prechorus
4.f#	_	4.f#	Hold	1Bm	newline	voice	.	91.255	B:min
4d	me	4d	me	.	.	.	B	.	.
8r	.	8r	.	.	.	.	.	.	.
4r	.	4r	.	.	.	.	.	.	.
=54	=54	=54	=54	=54	=54	=54	=54	=54	=54
4.e	Love	4.e	Love	1GM	.	voice	.	92.987	G:maj
4B	me	4B	me	.	.	.	B	.	.
8r	.	8r	.	.	.	.	.	.	.
4r	.	4r	.	.	.	.	.	.	.
=55	=55	=55	=55	=55	=55	=55	=55	=55	=55
4.f#	Hold	4.f#	Hold	1Bm	.	voice	.	94.719	B:min
8d	me	4d	me	.	.	.	B	.	.
8f#	_	.	.	.	.	.	.	.	.
8r	.	8r	.	.	.	.	.	.	.
4r	.	4r	.	.	.	.	.	.	.
=56	=56	=56	=56	=56	=56	=56	=56	=56	=56
4.e	Love	4.e	Love	1EM	.	voice	.	96.451	E:maj
4B	Me	4B	Me	.	.	.	B	.	.
8r	.	8r	.	.	.	.	.	.	.
8r	.	4r	.	.	.	.	.	.	.
8e	I	.	.	.	.	.	.	.	.
=57	=57	=57	=57	=57	=57	=57	=57	=57	=57
*>Letter>B2	*>Letter>B2	*>Letter>B2	*>Letter>B2	*>Letter>B2	*>Letter>B2	*>Letter>B2	*>Letter>B2	*>Letter>B2	*>Letter>B2
*>Label>Chorus	*>Label>Chorus	*>Label>Chorus	*>Label>Chorus	*>Label>Chorus	*>Label>Chorus	*>Label>Chorus	*>Label>Chorus	*>Label>Chorus	*>Label>Chorus
4f#	ain't	1r	.	1DM	newline	voice	.	98.182	D:maj
4e	got	.	.	.	.	.	.	.	.
8d	no-	.	.	.	.	.	.	.	.
8d	-thin'	.	.	.	.	.	.	.	.
4e	but	.	.	.	.	.	.	.	.
=58	=58	=58	=58	=58	=58	=58	=58	=58	=58
4.e	love	1r	.	1EM	.	voice	.	99.903	E:maj
4.B	babe	.	.	.	.	.	C	.	.
4r	.	.	.	.	.	.	.	.	.
=59	=59	=59	=59	=59	=59	=59	=59	=59	=59
4r	.	4r	.	1GM	.	voice	.	101.624	G:maj
4g	Eight	4d	Eight	.	.	.	C	.	.
4g	days	4d	days	.	.	.	C	.	.
8g	a	8c#	a	.	.	.	.	.	.
16f#	week	16d	week	.	.	.	B	.	.
16e	_	16B	_	.	.	.	.	.	.
=60	=60	=60	=60	=60	=60	=60	=60	=60	=60
4d	_	4A	_	1DM	.	voice	.	103.344	D:maj
4r	.	4r	.	.	.	.	.	.	.
2r	.	2r	.	.	.	.	.	.	.
=61	=61	=61	=61	=61	=61	=61	=61	=61	=61
*>Letter>D	*>Letter>D	*>Letter>D	*>Letter>D	*>Letter>D	*>Letter>D	*>Letter>D	*>Letter>D	*>Letter>D	*>Letter>D
*>Label>Bridge	*>Label>Bridge	*>Label>Bridge	*>Label>Bridge	*>Label>Bridge	*>Label>Bridge	*>Label>Bridge	*>Label>Bridge	*>Label>Bridge	*>Label>Bridge
2e	Eight	2A	Eight	1AM	newline	voice	C	105.065	A:maj
4.e	days	4.A	days	.	.	.	C	.	.
8f#	a	8B	a	.	.	.	.	.	.
=62	=62	=62	=62	=62	=62	=62	=62	=62	=62
2e	week	2A	week	1AM	.	voice	B	106.831	A:maj
4.r	.	4.r	.	.	.	.	.	.	.
8d	I	8A	I	.	.	.	.	.	.
=63	=63	=63	=63	=63	=63	=63	=63	=63	=63
4e	love	4B	love	1Bm	.	voice	.	108.597	B:min
4d	_	4A	_	.	.	.	.	.	.
4e	_	4B	_	.	.	.	.	.	.
4d	_	4A	_	.	.	.	.	.	.
=64	=64	=64	=64	=64	=64	=64	=64	=64	=64
12e	_	12B	_	1Bm	.	voice	.	110.363	B:min
12d	_	12A	_	.	.	.	.	.	.
12B	you	12F#	you	.	.	.	.	.	.
4r	.	4r	.	.	.	.	.	.	.
2r	.	2r	.	.	.	.	.	.	.
=65	=65	=65	=65	=65	=65	=65	=65	=65	=65
2e	Eight	2G#	Eight	1EM	newline	voice	C	112.129	E:maj
4.e	days	4.G#	days	.	.	.	C	.	.
8f#	a	8A	a	.	.	.	.	.	.
=66	=66	=66	=66	=66	=66	=66	=66	=66	=66
4.e	week	4.G#	week	1EM	.	voice	B	113.874	E:maj
8r	.	8r	.	.	.	.	.	.	.
4r	.	4r	.	.	.	.	.	.	.
8r	.	8r	.	.	.	.	.	.	.
8d	is	8A	is	.	.	.	.	.	.
=67	=67	=67	=67	=67	=67	=67	=67	=67	=67
4e	not	4B	not	1GM	.	voice	.	115.619	G:maj
4d	e-	4A	e-	.	.	.	.	.	.
4e	-nough	4B	-nough	.	.	.	.	.	.
4d	to	4A	to	.	.	.	.	.	.
=68	=68	=68	=68	=68	=68	=68	=68	=68	=68
8e	show	8c#	show	1AM	.	voice	.	117.363	A:maj
4e	I	4c#	I	.	.	.	.	.	.
4.g	care	4.e	care	.	.	.	.	.	.
4r	.	4r	.	.	.	.	.	.	.
=69	=69	=69	=69	=69	=69	=69	=69	=69	=69
*>Letter>B	*>Letter>B	*>Letter>B	*>Letter>B	*>Letter>B	*>Letter>B	*>Letter>B	*>Letter>B	*>Letter>B	*>Letter>B
*>Label>Verse	*>Label>Verse	*>Label>Verse	*>Label>Verse	*>Label>Verse	*>Label>Verse	*>Label>Verse	*>Label>Verse	*>Label>Verse	*>Label>Verse
4f#	Love	1r	.	1DM	newline	voice	.	119.108	D:maj
4e	you	.	.	.	.	.	.	.	.
8d	ev-	.	.	.	.	.	.	.	.
4e	-ery	.	.	.	.	.	.	.	.
[8e	day	.	.	.	.	.	C	.	.
=70	=70	=70	=70	=70	=70	=70	=70	=70	=70
4.e]	_	1r	.	1EM	.	voice	.	120.857	E:maj
4.B	girl	.	.	.	.	.	.	.	.
4r	.	.	.	.	.	.	.	.	.
=71	=71	=71	=71	=71	=71	=71	=71	=71	=71
4B	Al-	1r	.	1GM	.	voice	.	122.605	G:maj
4d	-ways	.	.	.	.	.	.	.	.
4g	on	.	.	.	.	.	.	.	.
8g	my	.	.	.	.	.	.	.	.
[8f#	mind	.	.	.	.	.	D	.	.
=72	=72	=72	=72	=72	=72	=72	=72	=72	=72
4.f#]	_	1r	.	1DM	.	voice	.	124.354	D:maj
8r	.	.	.	.	.	.	.	.	.
2r	.	.	.	.	.	.	.	.	.
=73	=73	=73	=73	=73	=73	=73	=73	=73	=73
4f#	One	1r	.	1DM	newline	voice	.	126.102	D:maj
4e	thing	.	.	.	.	.	.	.	.
8d	I	.	.	.	.	.	.	.	.
4e	can	.	.	.	.	.	.	.	.
[8e	say	.	.	.	.	.	C	.	.
=74	=74	=74	=74	=74	=74	=74	=74	=74	=74
4.e]	_	1r	.	1EM	.	voice	.	127.857	E:maj
[8B	girl	.	.	.	.	.	.	.	.
4B]	_	.	.	.	.	.	.	.	.
4r	.	.	.	.	.	.	.	.	.
=75	=75	=75	=75	=75	=75	=75	=75	=75	=75
4B	Love	1r	.	1GM	.	voice	.	129.612	G:maj
4d	you	.	.	.	.	.	.	.	.
4g	all	.	.	.	.	.	.	.	.
8g	the	.	.	.	.	.	.	.	.
[8f#	time	.	.	.	.	.	D	.	.
=76	=76	=76	=76	=76	=76	=76	=76	=76	=76
4f#]	_	1r	.	1DM	.	voice	.	131.366	D:maj
4r	.	.	.	.	.	.	.	.	.
2r	.	.	.	.	.	.	.	.	.
=77	=77	=77	=77	=77	=77	=77	=77	=77	=77
*>Letter>C	*>Letter>C	*>Letter>C	*>Letter>C	*>Letter>C	*>Letter>C	*>Letter>C	*>Letter>C	*>Letter>C	*>Letter>C
*>Label>Prechorus	*>Label>Prechorus	*>Label>Prechorus	*>Label>Prechorus	*>Label>Prechorus	*>Label>Prechorus	*>Label>Prechorus	*>Label>Prechorus	*>Label>Prechorus	*>Label>Prechorus
4.f#	Hold	4.a	Hold	1Bm	newline	voice	.	133.121	B:min
4d	me	4f#	me	.	.	.	B	.	.
8r	.	8r	.	.	.	.	.	.	.
4r	.	4r	.	.	.	.	.	.	.
=78	=78	=78	=78	=78	=78	=78	=78	=78	=78
4.e	Love	4.g	Love	1GM	.	voice	.	134.851	G:maj
4B	me	4d	me	.	.	.	B	.	.
8r	.	8r	.	.	.	.	.	.	.
4r	.	4r	.	.	.	.	.	.	.
=79	=79	=79	=79	=79	=79	=79	=79	=79	=79
4.f#	Hold	4.a	Hold	1Bm	.	voice	.	136.581	B:min
8d	me	4f#	me	.	.	.	B	.	.
8f#	_	.	.	.	.	.	.	.	.
8r	.	8r	.	.	.	.	.	.	.
4r	.	4r	.	.	.	.	.	.	.
=80	=80	=80	=80	=80	=80	=80	=80	=80	=80
4.e	Love	4.g#	Love	1EM	.	voice	.	138.311	E:maj
4B	Me	4e	Me	.	.	.	B	.	.
8r	.	8r	.	.	.	.	.	.	.
8r	.	4r	.	.	.	.	.	.	.
8e	I	.	.	.	.	.	.	.	.
=81	=81	=81	=81	=81	=81	=81	=81	=81	=81
*>Letter>B3	*>Letter>B3	*>Letter>B3	*>Letter>B3	*>Letter>B3	*>Letter>B3	*>Letter>B3	*>Letter>B3	*>Letter>B3	*>Letter>B3
*>Label>Chorus	*>Label>Chorus	*>Label>Chorus	*>Label>Chorus	*>Label>Chorus	*>Label>Chorus	*>Label>Chorus	*>Label>Chorus	*>Label>Chorus	*>Label>Chorus
4f#	ain't	1r	.	1DM	newline	voice	.	140.041	D:maj
4e	got	.	.	.	.	.	.	.	.
8d	no-	.	.	.	.	.	.	.	.
8d	-thin'	.	.	.	.	.	.	.	.
4e	but	.	.	.	.	.	.	.	.
=82	=82	=82	=82	=82	=82	=82	=82	=82	=82
4.e	love	1r	.	1EM	.	voice	.	141.753	E:maj
4.B	babe	.	.	.	.	.	C	.	.
4r	.	.	.	.	.	.	.	.	.
=83	=83	=83	=83	=83	=83	=83	=83	=83	=83
4r	.	4r	.	1GM	.	voice	.	143.465	G:maj
4g	Eight	4d	Eight	.	.	.	C	.	.
4g	days	4d	days	.	.	.	C	.	.
8g	a	8c#	a	.	.	.	.	.	.
16f#	week	16d	week	.	.	.	B	.	.
16e	_	16B	_	.	.	.	.	.	.
=84	=84	=84	=84	=84	=84	=84	=84	=84	=84
4d	_	4A	_	1DM	.	voice	.	145.177	D:maj
4r	.	4r	.	.	.	.	.	.	.
2r	.	2r	.	.	.	.	.	.	.
=85	=85	=85	=85	=85	=85	=85	=85	=85	=85
4r	.	4r	.	1GM	newline	voice	.	146.89	G:maj
4g	Eight	4d	Eight	.	.	.	C	.	.
4g	days	4d	days	.	.	.	C	.	.
8g	a	8c#	a	.	.	.	.	.	.
16f#	week	16d	week	.	.	.	B	.	.
16e	_	16B	_	.	.	.	.	.	.
=86	=86	=86	=86	=86	=86	=86	=86	=86	=86
4d	_	4A	_	1DM	.	voice	.	148.631	D:maj
4r	.	4r	.	.	.	.	.	.	.
2r	.	2r	.	.	.	.	.	.	.
=87	=87	=87	=87	=87	=87	=87	=87	=87	=87
4r	.	4r	.	1GM	.	voice	.	150.373	G:maj
4g	Eight	4d	Eight	.	.	.	C	.	.
4g	days	4d	days	.	.	.	C	.	.
8g	a	8c#	a	.	.	.	.	.	.
16f#	week	16d	week	.	.	.	B	.	.
16e	_	16B	_	.	.	.	.	.	.
=88	=88	=88	=88	=88	=88	=88	=88	=88	=88
4d	_	4A	_	1DM	.	voice	.	152.114	D:maj
4r	.	4r	.	.	.	.	.	.	.
2r	.	2r	.	.	.	.	.	.	.
=89	=89	=89	=89	=89	=89	=89	=89	=89	=89
*>Letter>A	*>Letter>A	*>Letter>A	*>Letter>A	*>Letter>A	*>Letter>A	*>Letter>A	*>Letter>A	*>Letter>A	*>Letter>A
*>Label>Outro	*>Label>Outro	*>Label>Outro	*>Label>Outro	*>Label>Outro	*>Label>Outro	*>Label>Outro	*>Label>Outro	*>Label>Outro	*>Label>Outro
1r	.	1r	.	1DM	newline	guitar	.	153.856	D:maj(9)
=90	=90	=90	=90	=90	=90	=90	=90	=90	=90
1r	.	1r	.	1EM	.	guitar	.	155.614	E:maj/b7
=91	=91	=91	=91	=91	=91	=91	=91	=91	=91
1r	.	1r	.	1GM	.	guitar	.	157.371	G:maj/5
=92	=92	=92	=92	=92	=92	=92	=92	=92	=92
1r	.	1r	.	1DM	.	guitar	.	159.129	D:maj(9)
r;	.	r;	.	1r;	.	r	.	162.645	N.C.
r;	.	r;	.	1r;	.	r	.	164.419	N.C.
*-	*-	*-	*-	*-	*-	*-	*-	*-	*-
!!!BillboardChartDate: 1965/03/27
!!!BillboardPeak: 1
!!!BillboardWeeksOnChart: 10
!!!COC: The Beatles
!!!ENC: Nathaniel Condit-Schultz
!!!EST: Awating manual error checking and editing.
!!!OTL: Eight Days A Week
!!!RDF**chordsym: original McGill chord annotation + (implied pitch class set, with bass pitch in first position)
!!!RDF**harmony: **recip + pitch class of root + harmonic quality
!!!RDF**leadinstrument: original McGill primary instrumentation annotation
!!!RDF**phrase: newline = linebreak in original McGill transcription
!!!RDF**timestamp: McGill audio timestamp in seconds
!!!RDT: 2017/01/12/
!!!SampleActualRank: 4
!!!SampleID#: 0727
!!!SampleTargetRank: 2
